src/next/sw/res/sr20012.svg

<svg enable-background="new 0 0 128 128" height="16" viewBox="0 0 16 16" width="16" xmlns="http://www.w3.org/2000/svg" xmlns:xlink="http://www.w3.org/1999/xlink"><linearGradient id="a" gradientUnits="userSpaceOnUse" x1="85.219681" x2="61.336319" y1="93.219681" y2="69.336319"><stop offset="0"/><stop offset="1" stop-color="#393b38"/></linearGradient><linearGradient id="b" gradientUnits="userSpaceOnUse" x1="96" x2="88.000198" y1="104" y2="96.000198"><stop offset="0" stop-color="#888a85"/><stop offset=".0072" stop-color="#8c8e89"/><stop offset=".0673" stop-color="#abaca9"/><stop offset=".1347" stop-color="#c5c6c4"/><stop offset=".2115" stop-color="#dbdbda"/><stop offset=".3012" stop-color="#ebebeb"/><stop offset=".4122" stop-color="#f7f7f6"/><stop offset=".5679" stop-color="#fdfdfd"/><stop offset="1" stop-color="#fff"/></linearGradient><radialGradient id="c" cx="102" cy="112.3047" gradientTransform="matrix(.9787234 0 0 .9818182 1.361705 1.163636)" gradientUnits="userSpaceOnUse" r="139.55859"><stop offset="0" stop-color="#535557"/><stop offset=".11366145" stop-color="#898a8c"/><stop offset=".20296688" stop-color="#ececec"/><stop offset=".2363" stop-color="#fafafa"/><stop offset=".2722" stop-color="#fff"/><stop offset=".5313" stop-color="#fafafa"/><stop offset=".8449" stop-color="#ebecec"/><stop offset="1" stop-color="#e1e2e3"/></radialGradient><radialGradient id="d" cx="102.000002" cy="112.3047" gradientUnits="userSpaceOnUse" r="139.5585"><stop offset="0" stop-color="#00537d"/><stop offset=".0151" stop-color="#186389"/><stop offset=".0558" stop-color="#558ca8"/><stop offset=".0964" stop-color="#89afc3"/><stop offset=".1357" stop-color="#b3ccd8"/><stop offset=".1737" stop-color="#d4e2e9"/><stop offset=".2099" stop-color="#ecf2f5"/><stop offset=".2435" stop-color="#fafcfd"/><stop offset=".2722" stop-color="#fff"/></radialGradient><filter id="e"><feGaussianBlur stdDeviation="1.0394514"/></filter><filter id="f"><feGaussianBlur stdDeviation=".50063244"/></filter><filter id="g"><feGaussianBlur stdDeviation=".4901192"/></filter><filter id="h"><feGaussianBlur stdDeviation=".90565481"/></filter><filter id="i" height="1.247155" width="1.247155" x="-.123577" y="-.123577"><feGaussianBlur stdDeviation="1.7720846"/></filter><linearGradient id="j" gradientTransform="matrix(1 0 0 .52380962 0 11.428567)" gradientUnits="userSpaceOnUse" x1="56" x2="56" y1="46.909092" y2="24"><stop offset="0" stop-color="#f2fdeb"/><stop offset="1" stop-color="#c8ffa5"/></linearGradient><linearGradient id="k" gradientTransform="matrix(1.2 0 0 1.4999996 -10.4 -15.999986)" gradientUnits="userSpaceOnUse" x1="56" x2="56" y1="44" y2="24"><stop offset="0" stop-color="#5ca524"/><stop offset="1" stop-color="#58a11e" stop-opacity=".986274"/></linearGradient><g transform="matrix(.125 0 0 .125 0 .000012)"><path d="m23 9 .04082 112h61.13118c.53 0 1.039-.211 1.414-.586l32.828-32.828c.375-.375.586-.884.586-1.414v-77.172z" filter="url(#e)" opacity=".715069" transform="matrix(1.0416667 0 0 1.0357143 -9.958333 -3.321534)"/><path d="m24.919999 10.931136v108.137934l58.676001-.0001c.53 0 1.039-.211 1.414-.586l31.484-31.765936c.375-.375.586-.884.586-1.414v-74.371898z" filter="url(#f)" opacity=".89589" transform="matrix(1.0416667 0 0 1.0357143 -9.958333 -3.321534)"/><path d="m23 9.9655172.040816 111.0344828h61.131184c.53 0 1.039-.211 1.414-.586 13.296921-8.21061 24.14086-19.26784 32.828-32.828.375-.375.586-.884.586-1.414v-76.2064828z" filter="url(#e)" opacity=".835616" transform="matrix(1.0416667 0 0 1.0357143 -9.958333 -3.321534)"/><path d="m16.000002 8v112h61.172c.53 0 1.039-.211 1.414-.586l32.827998-32.828c.375-.375.586-.884.586-1.414v-77.172z" fill="url(#d)"/><path d="m24.678725 16c-.539276 0-.978723.440836-.978723.981818l.3 94.036362c0 .54197.439447.98182.978723.98182h51.913022c.257404 0 .509915-.10407.691957-.28767l26.129526-26.23113c.18303-.1836.28677-.435927.28677-.694145v-67.805237c0-.540982-.43847-.981818-.97872-.981818z" fill="url(#c)"/><g fill="#9e9e9e"><path d="m32 24h64v8h-64z"/><path d="m32 48h64v8h-64z"/><path d="m32 72h64v8h-64z"/><path d="m32 96h40v8h-40z"/></g><path d="m24 16h48v24h-48z" fill="url(#k)"/><path d="m32 23.999996h32v8.000004h-32z" fill="url(#j)"/><g transform="translate(24 48)"><path d="m24 16h48v24h-48z" fill="url(#k)"/><path d="m32 23.999996h32v8.000004h-32z" fill="url(#j)"/></g><g transform="translate(.000002)"><path d="m111.414 86.586c.25-.25-26.379-1.586-31.414-1.586-1.654 0-3 1.346-3 3 0 5.035 1.336 31.664 1.586 31.414z" filter="url(#i)" opacity=".906849"/><path d="m111.414 86.586c.375-.375-21.97-.586-31.414-.586-1.103 0-2 .897-2 2 0 9.444.211 31.789.586 31.414z" filter="url(#h)" opacity=".2"/><path d="m111.414 86.586c.239-.239-21.607.414-31.414.414-.553 0-1 .447-1 1 0 9.807-.653 31.653-.414 31.414z" fill="url(#a)" filter="url(#g)" opacity=".1"/><path d="m78.586 119.414s11.914-9.914 17.414-15.414 15.414-17.414 15.414-17.414-21.164 1.414-31.414 1.414c0 10.25-1.414 31.414-1.414 31.414z" fill="url(#b)"/></g></g></svg>

<?xml version="1.0" encoding="UTF-8" standalone="no"?>
<!-- Generator: Adobe Illustrator 12.0.0, SVG Export Plug-In . SVG Version: 6.00 Build 51448)  -->

<svg
   xmlns:ns="http://ns.adobe.com/SaveForWeb/1.0/"
   xmlns:dc="http://purl.org/dc/elements/1.1/"
   xmlns:cc="http://creativecommons.org/ns#"
   xmlns:rdf="http://www.w3.org/1999/02/22-rdf-syntax-ns#"
   xmlns:svg="http://www.w3.org/2000/svg"
   xmlns="http://www.w3.org/2000/svg"
   xmlns:xlink="http://www.w3.org/1999/xlink"
   xmlns:sodipodi="http://sodipodi.sourceforge.net/DTD/sodipodi-0.dtd"
   xmlns:inkscape="http://www.inkscape.org/namespaces/inkscape"
   version="1.1"
   id="Layer_1"
   width="16"
   height="16"
   viewBox="0 0 16 16"
   overflow="visible"
   enable-background="new 0 0 128 128"
   xml:space="preserve"
   sodipodi:version="0.32"
   inkscape:version="0.92.4 (unknown)"
   sodipodi:docname="sr20012.svg"
   inkscape:output_extension="org.inkscape.output.svgz.inkscape"
   inkscape:export-filename="/home/rizmut/Dokumen/Rizmut/Github/libreoffice-style-karasa-jaga/build/next/sw/res/sr20012.png"
   inkscape:export-xdpi="96"
   inkscape:export-ydpi="96"
   style="overflow:visible"><defs
     id="defs105"><linearGradient
       y2="95.292999"
       x2="87.292999"
       y1="103"
       x1="95"
       gradientUnits="userSpaceOnUse"
       id="linearGradient4175"><stop
         id="stop4177"
         style="stop-color:#000000;stop-opacity:1"
         offset="0" /><stop
         id="stop4179"
         style="stop-color:#393B38"
         offset="1" /></linearGradient><linearGradient
       id="linearGradient3207"><stop
         style="stop-color:#ffffff;stop-opacity:1;"
         offset="0"
         id="stop3209" /><stop
         style="stop-color:#252525;stop-opacity:0;"
         offset="1"
         id="stop3211" /></linearGradient><linearGradient
       inkscape:collect="always"
       xlink:href="#linearGradient4175"
       id="linearGradient2295"
       gradientUnits="userSpaceOnUse"
       x1="85.219681"
       y1="93.219681"
       x2="61.336319"
       y2="69.336319" /><linearGradient
       inkscape:collect="always"
       xlink:href="#XMLID_12_"
       id="linearGradient2297"
       gradientUnits="userSpaceOnUse"
       x1="96"
       y1="104"
       x2="88.000198"
       y2="96.000198" /><radialGradient
       inkscape:collect="always"
       xlink:href="#XMLID_8_"
       id="radialGradient2272"
       gradientUnits="userSpaceOnUse"
       gradientTransform="matrix(0.9787234,0,0,0.9818182,1.3617045,1.1636364)"
       cx="102"
       cy="112.3047"
       r="139.55859" /><radialGradient
       inkscape:collect="always"
       xlink:href="#XMLID_7_"
       id="radialGradient2275"
       gradientUnits="userSpaceOnUse"
       gradientTransform="translate(2.4e-6)"
       cx="102"
       cy="112.3047"
       r="139.5585" /><filter
       inkscape:collect="always"
       id="filter3241"><feGaussianBlur
         inkscape:collect="always"
         stdDeviation="1.0394514"
         id="feGaussianBlur3243" /></filter><filter
       inkscape:collect="always"
       id="filter3772"><feGaussianBlur
         inkscape:collect="always"
         stdDeviation="0.50063244"
         id="feGaussianBlur3774" /></filter><filter
       inkscape:collect="always"
       id="filter4171"><feGaussianBlur
         inkscape:collect="always"
         stdDeviation="0.4901192"
         id="feGaussianBlur4173" /></filter><filter
       inkscape:collect="always"
       id="filter4209"><feGaussianBlur
         inkscape:collect="always"
         stdDeviation="0.90565481"
         id="feGaussianBlur4211" /></filter><filter
       inkscape:collect="always"
       id="filter4293"
       x="-0.12357724"
       width="1.2471545"
       y="-0.12357724"
       height="1.2471545"><feGaussianBlur
         inkscape:collect="always"
         stdDeviation="1.7720846"
         id="feGaussianBlur4295" /></filter><linearGradient
       id="linearGradient3202"><stop
         id="stop3204"
         offset="0"
         style="stop-color:#cbff9c;stop-opacity:1;" /><stop
         id="stop3206"
         offset="1"
         style="stop-color:#65c171;stop-opacity:0" /></linearGradient><radialGradient
       id="XMLID_4_"
       cx="48"
       cy="-0.2148"
       r="55.147999"
       gradientTransform="matrix(0.9792,0,0,0.9725,133.0002,20.8762)"
       gradientUnits="userSpaceOnUse"><stop
         offset="0"
         style="stop-color:#72D13D"
         id="stop3082" /><stop
         offset="0.3553"
         style="stop-color:#35AC1C"
         id="stop3084" /><stop
         offset="0.6194"
         style="stop-color:#0F9508"
         id="stop3086" /><stop
         offset="0.7574"
         style="stop-color:#008C00"
         id="stop3088" /><stop
         offset="1"
         style="stop-color:#007A00"
         id="stop3090" /></radialGradient><linearGradient
       y2="0"
       x2="28"
       y1="57.5"
       x1="28"
       gradientUnits="userSpaceOnUse"
       id="linearGradient5412"><stop
         id="stop5414"
         style="stop-color:#fff14d;stop-opacity:1;"
         offset="0" /><stop
         id="stop5416"
         style="stop-color:#f8ffa0;stop-opacity:0;"
         offset="1" /></linearGradient><linearGradient
       id="b"
       gradientTransform="matrix(1.0384874,0,0,0.91306627,4.332511,8.824573)"
       gradientUnits="userSpaceOnUse"
       x1="46.048"
       x2="46.048"
       y1="128.01709"
       y2="16.6203"><stop
         offset="0"
         stop-color="#f2fdeb"
         id="stop7" /><stop
         offset="1"
         stop-color="#c8ffa5"
         id="stop9" /></linearGradient><linearGradient
       id="a"
       gradientUnits="userSpaceOnUse"
       x1="121.87097"
       x2="121.87097"
       y1="-34.455017"
       y2="101.92964"><stop
         offset="0"
         stop-color="#5ca524"
         id="stop2" /><stop
         offset="1"
         stop-color="#58a11e"
         stop-opacity=".986274"
         id="stop4" /></linearGradient><linearGradient
       inkscape:collect="always"
       xlink:href="#b"
       id="linearGradient928"
       x1="56"
       y1="46.909092"
       x2="56"
       y2="24"
       gradientUnits="userSpaceOnUse"
       gradientTransform="matrix(1,0,0,0.52380962,0,11.428567)" /><linearGradient
       inkscape:collect="always"
       xlink:href="#a"
       id="linearGradient932"
       gradientUnits="userSpaceOnUse"
       x1="56"
       y1="44"
       x2="56"
       y2="24"
       gradientTransform="matrix(1.2,0,0,1.4999996,-10.4,-15.999986)" /><linearGradient
       inkscape:collect="always"
       xlink:href="#a"
       id="linearGradient948"
       gradientUnits="userSpaceOnUse"
       gradientTransform="matrix(1.2,0,0,1.4999996,-10.4,-15.999986)"
       x1="56"
       y1="44"
       x2="56"
       y2="24" /><linearGradient
       inkscape:collect="always"
       xlink:href="#b"
       id="linearGradient950"
       gradientUnits="userSpaceOnUse"
       gradientTransform="matrix(1,0,0,0.52380962,0,11.428567)"
       x1="56"
       y1="46.909092"
       x2="56"
       y2="24" /></defs><sodipodi:namedview
     inkscape:window-height="706"
     inkscape:window-width="1366"
     inkscape:pageshadow="2"
     inkscape:pageopacity="0.0"
     guidetolerance="10.0"
     gridtolerance="10.0"
     objecttolerance="10.0"
     borderopacity="1.0"
     bordercolor="#666666"
     pagecolor="#ffffff"
     id="base"
     inkscape:zoom="10.208854"
     inkscape:cx="12.804391"
     inkscape:cy="-6.7190703"
     inkscape:window-x="0"
     inkscape:window-y="0"
     inkscape:current-layer="g956"
     showgrid="true"
     showguides="true"
     inkscape:guide-bbox="true"
     inkscape:window-maximized="1"><inkscape:grid
       id="GridFromPre046Settings"
       type="xygrid"
       originx="0px"
       originy="0px"
       spacingx="4px"
       spacingy="4px"
       color="#0000ff"
       empcolor="#0000ff"
       opacity="0.2"
       empopacity="0.4"
       empspacing="2"
       enabled="true"
       visible="true" /></sodipodi:namedview><metadata
     id="metadata3"><ns:sfw><ns:slices><ns:slice
           y="0"
           x="0"
           height="128"
           width="128"
           sliceID="1316743234" /></ns:slices><ns:sliceSourceBounds
         y="0"
         x="0"
         height="128"
         width="128"
         bottomLeftOrigin="true" /><ns:optimizationSettings><ns:targetSettings
           targetSettingsID="0"
           fileFormat="PNG24Format"><ns:PNG24Format
             transparency="true"
             filtered="false"
             matteColor="#FFFFFF"
             noMatteColor="false"
             interlaced="false" /></ns:targetSettings><ns:targetSettings
           targetSettingsID="1696735251"
           fileFormat="PNG24Format"><ns:PNG24Format
             transparency="true"
             filtered="false"
             matteColor="#FFFFFF"
             noMatteColor="false"
             interlaced="false" /></ns:targetSettings></ns:optimizationSettings></ns:sfw><rdf:RDF><cc:Work
         rdf:about=""><dc:format>image/svg+xml</dc:format><dc:type
           rdf:resource="http://purl.org/dc/dcmitype/StillImage" /><dc:title></dc:title></cc:Work></rdf:RDF></metadata><radialGradient
     id="XMLID_7_"
     cx="102"
     cy="112.3047"
     r="139.5585"
     gradientUnits="userSpaceOnUse"><stop
       offset="0"
       style="stop-color:#00537D"
       id="stop16" /><stop
       offset="0.0151"
       style="stop-color:#186389"
       id="stop18" /><stop
       offset="0.0558"
       style="stop-color:#558CA8"
       id="stop20" /><stop
       offset="0.0964"
       style="stop-color:#89AFC3"
       id="stop22" /><stop
       offset="0.1357"
       style="stop-color:#B3CCD8"
       id="stop24" /><stop
       offset="0.1737"
       style="stop-color:#D4E2E9"
       id="stop26" /><stop
       offset="0.2099"
       style="stop-color:#ECF2F5"
       id="stop28" /><stop
       offset="0.2435"
       style="stop-color:#FAFCFD"
       id="stop30" /><stop
       offset="0.2722"
       style="stop-color:#FFFFFF"
       id="stop32" /></radialGradient><radialGradient
     id="XMLID_8_"
     cx="102"
     cy="112.3047"
     r="139.55859"
     gradientUnits="userSpaceOnUse"><stop
       offset="0"
       style="stop-color:#535557"
       id="stop37" /><stop
       offset="0.11366145"
       style="stop-color:#898A8C"
       id="stop41" /><stop
       offset="0.20296688"
       style="stop-color:#ECECEC"
       id="stop47" /><stop
       offset="0.2363"
       style="stop-color:#FAFAFA"
       id="stop49" /><stop
       offset="0.2722"
       style="stop-color:#FFFFFF"
       id="stop51" /><stop
       offset="0.5313"
       style="stop-color:#FAFAFA"
       id="stop53" /><stop
       offset="0.8449"
       style="stop-color:#EBECEC"
       id="stop55" /><stop
       offset="1"
       style="stop-color:#E1E2E3"
       id="stop57" /></radialGradient><linearGradient
     id="XMLID_9_"
     gradientUnits="userSpaceOnUse"
     x1="94.343803"
     y1="102.3447"
     x2="86.535599"
     y2="94.536598"><stop
       offset="0"
       style="stop-color:#FFFFFF"
       id="stop62" /><stop
       offset="1"
       style="stop-color:#555753"
       id="stop64" /></linearGradient><linearGradient
     id="XMLID_10_"
     gradientUnits="userSpaceOnUse"
     x1="95"
     y1="103"
     x2="86.586502"
     y2="94.586502"><stop
       offset="0"
       style="stop-color:#FFFFFF"
       id="stop69" /><stop
       offset="1"
       style="stop-color:#555753"
       id="stop71" /></linearGradient><linearGradient
     id="XMLID_11_"
     gradientUnits="userSpaceOnUse"
     x1="95"
     y1="103"
     x2="87.292999"
     y2="95.292999"><stop
       offset="0"
       style="stop-color:#FFFFFF"
       id="stop76" /><stop
       offset="1"
       style="stop-color:#393B38"
       id="stop78" /></linearGradient><linearGradient
     id="XMLID_12_"
     gradientUnits="userSpaceOnUse"
     x1="96"
     y1="104"
     x2="88.000198"
     y2="96.000198"><stop
       offset="0"
       style="stop-color:#888A85"
       id="stop83" /><stop
       offset="0.0072"
       style="stop-color:#8C8E89"
       id="stop85" /><stop
       offset="0.0673"
       style="stop-color:#ABACA9"
       id="stop87" /><stop
       offset="0.1347"
       style="stop-color:#C5C6C4"
       id="stop89" /><stop
       offset="0.2115"
       style="stop-color:#DBDBDA"
       id="stop91" /><stop
       offset="0.3012"
       style="stop-color:#EBEBEB"
       id="stop93" /><stop
       offset="0.4122"
       style="stop-color:#F7F7F6"
       id="stop95" /><stop
       offset="0.5679"
       style="stop-color:#FDFDFD"
       id="stop97" /><stop
       offset="1"
       style="stop-color:#FFFFFF"
       id="stop99" /></linearGradient><g
     id="g956"
     transform="matrix(0.125,0,0,0.125,0,1.2470166e-5)"><path
       id="path4081"
       d="m 23,9 0.04082,112 H 84.172 c 0.53,0 1.039,-0.211 1.414,-0.586 L 118.414,87.586 C 118.789,87.211 119,86.702 119,86.172 V 9 Z"
       style="opacity:0.7150685;fill:#000000;fill-opacity:1;filter:url(#filter3241)"
       transform="matrix(1.0416667,0,0,1.0357143,-9.9583333,-3.3215342)"
       sodipodi:nodetypes="cccccccc"
       inkscape:connector-curvature="0" /><path
       id="path3726"
       d="M 24.919999,10.931136 V 119.06907 l 58.676001,-1e-4 c 0.53,0 1.039,-0.211 1.414,-0.586 l 31.484,-31.765936 c 0.375,-0.375 0.586,-0.884 0.586,-1.414 V 10.931136 Z"
       style="opacity:0.89589042;fill:#000000;fill-opacity:1;filter:url(#filter3772)"
       transform="matrix(1.0416667,0,0,1.0357143,-9.9583333,-3.3215342)"
       sodipodi:nodetypes="cccccccc"
       inkscape:connector-curvature="0" /><path
       sodipodi:nodetypes="cccccccc"
       transform="matrix(1.0416667,0,0,1.0357143,-9.9583333,-3.3215342)"
       style="opacity:0.83561647;fill:#000000;fill-opacity:1;filter:url(#filter3241)"
       d="M 23,9.9655172 23.040816,121 H 84.172 c 0.53,0 1.039,-0.211 1.414,-0.586 13.296921,-8.21061 24.14086,-19.26784 32.828,-32.828 C 118.789,87.211 119,86.702 119,86.172 V 9.9655172 Z"
       id="path6594"
       inkscape:connector-curvature="0" /><path
       sodipodi:nodetypes="cccccccc"
       id="path34"
       d="m 16.000002,8 v 112 h 61.172 c 0.53,0 1.039,-0.211 1.414,-0.586 L 111.414,86.586 C 111.789,86.211 112,85.702 112,85.172 V 8 Z"
       style="fill:url(#radialGradient2275)"
       inkscape:connector-curvature="0" /><path
       sodipodi:nodetypes="ccccccccccc"
       id="path59"
       d="m 24.678725,16 c -0.539276,0 -0.978723,0.440836 -0.978723,0.981818 l 0.3,94.036362 c 0,0.54197 0.439447,0.98182 0.978723,0.98182 h 51.913022 c 0.257404,0 0.509915,-0.10407 0.691957,-0.28767 L 103.71323,85.4812 C 103.89626,85.2976 104,85.045273 104,84.787055 V 16.981818 C 104,16.440836 103.56153,16 103.02128,16 Z"
       style="fill:url(#radialGradient2272);fill-opacity:1"
       inkscape:connector-curvature="0" /><path
       id="path3341"
       d="M 100,32 Z"
       style="fill:none;fill-rule:evenodd;stroke:#000000;stroke-width:1px;stroke-linecap:butt;stroke-linejoin:miter;stroke-opacity:1"
       inkscape:connector-curvature="0" /><rect
       y="24"
       x="32"
       height="8"
       width="64"
       id="rect31815"
       style="opacity:1;fill:#9e9e9e;fill-opacity:1;stroke:none;stroke-width:6;stroke-linecap:square;stroke-linejoin:round;stroke-miterlimit:4;stroke-dasharray:none;stroke-dashoffset:0;stroke-opacity:1" /><rect
       y="48"
       x="32"
       height="8"
       width="64"
       id="rect31817"
       style="opacity:1;fill:#9e9e9e;fill-opacity:1;stroke:none;stroke-width:6;stroke-linecap:square;stroke-linejoin:round;stroke-miterlimit:4;stroke-dasharray:none;stroke-dashoffset:0;stroke-opacity:1" /><rect
       y="72"
       x="32"
       height="8"
       width="64"
       id="rect31819"
       style="opacity:1;fill:#9e9e9e;fill-opacity:1;stroke:none;stroke-width:6;stroke-linecap:square;stroke-linejoin:round;stroke-miterlimit:4;stroke-dasharray:none;stroke-dashoffset:0;stroke-opacity:1" /><rect
       y="96"
       x="32"
       height="8"
       width="40"
       id="rect31821"
       style="opacity:1;fill:#9e9e9e;fill-opacity:1;stroke:none;stroke-width:6;stroke-linecap:square;stroke-linejoin:round;stroke-miterlimit:4;stroke-dasharray:none;stroke-dashoffset:0;stroke-opacity:1" /><g
       id="g936"><rect
         y="16"
         x="24"
         height="24"
         width="48"
         id="rect930"
         style="opacity:1;fill:url(#linearGradient932);fill-opacity:1;stroke:none;stroke-width:6.57266998;stroke-linecap:square;stroke-linejoin:round;stroke-miterlimit:4;stroke-dasharray:none;stroke-dashoffset:0;stroke-opacity:1" /><rect
         style="opacity:1;fill:url(#linearGradient928);fill-opacity:1;stroke:none;stroke-width:3.5456214;stroke-linecap:square;stroke-linejoin:round;stroke-miterlimit:4;stroke-dasharray:none;stroke-dashoffset:0;stroke-opacity:1"
         id="rect31823"
         width="32"
         height="8.0000038"
         x="32"
         y="23.999996" /></g><g
       transform="translate(24,48)"
       id="g942"><rect
         style="opacity:1;fill:url(#linearGradient948);fill-opacity:1;stroke:none;stroke-width:6.57266998;stroke-linecap:square;stroke-linejoin:round;stroke-miterlimit:4;stroke-dasharray:none;stroke-dashoffset:0;stroke-opacity:1"
         id="rect938"
         width="48"
         height="24"
         x="24"
         y="16" /><rect
         y="23.999996"
         x="32"
         height="8.0000038"
         width="32"
         id="rect940"
         style="opacity:1;fill:url(#linearGradient950);fill-opacity:1;stroke:none;stroke-width:3.5456214;stroke-linecap:square;stroke-linejoin:round;stroke-miterlimit:4;stroke-dasharray:none;stroke-dashoffset:0;stroke-opacity:1" /></g><g
       transform="translate(2.4e-6)"
       id="g1973"><path
         sodipodi:nodetypes="csscc"
         d="M 111.414,86.586 C 111.664,86.336 85.035,85 80,85 c -1.654,0 -3,1.346 -3,3 0,5.035 1.336,31.664 1.586,31.414 z"
         id="path66"
         style="opacity:0.90684934;fill:#000000;fill-opacity:1;filter:url(#filter4293)"
         inkscape:connector-curvature="0" /><path
         sodipodi:nodetypes="csscc"
         d="M 111.414,86.586 C 111.789,86.211 89.444,86 80,86 c -1.103,0 -2,0.897 -2,2 0,9.444 0.211,31.789 0.586,31.414 z"
         id="path73"
         style="opacity:0.2;fill:#000000;fill-opacity:1;filter:url(#filter4209)"
         inkscape:connector-curvature="0" /><path
         sodipodi:nodetypes="csscc"
         d="M 111.414,86.586 C 111.653,86.347 89.807,87 80,87 c -0.553,0 -1,0.447 -1,1 0,9.807 -0.653,31.653 -0.414,31.414 z"
         id="path80"
         style="opacity:0.1;fill:url(#linearGradient2295);filter:url(#filter4171)"
         inkscape:connector-curvature="0" /><path
         sodipodi:nodetypes="csccc"
         d="m 78.586,119.414 c 0,0 11.914,-9.914 17.414,-15.414 5.5,-5.5 15.414,-17.414 15.414,-17.414 0,0 -21.164,1.414 -31.414,1.414 0,10.25 -1.414,31.414 -1.414,31.414 z"
         id="path101"
         style="fill:url(#linearGradient2297)"
         inkscape:connector-curvature="0" /></g></g></svg>
